public/images/error/maintenance-dark.svg

<svg width="204" height="212" viewBox="0 0 204 212" fill="none" xmlns="http://www.w3.org/2000/svg">
<path fill-rule="evenodd" clip-rule="evenodd" d="M12.3977 187.783C15.3444 192.887 21.8722 194.635 26.976 191.688C34.088 187.582 42.9808 192.713 42.9808 200.926C42.9808 206.818 47.7571 211.594 53.6489 211.594H75.4488C81.342 211.594 86.1194 206.816 86.1194 200.922C86.1194 192.709 95.0106 187.575 102.124 191.681C107.227 194.627 113.752 192.879 116.698 187.776L127.599 168.895C130.545 163.793 128.795 157.268 123.693 154.322C116.584 150.218 116.581 139.955 123.689 135.851C128.789 132.906 130.537 126.385 127.592 121.285L116.687 102.397C113.742 97.2955 107.219 95.5476 102.118 98.4929C95.0074 102.598 86.1194 97.4636 86.1194 89.2531C86.1194 83.3611 81.343 78.583 75.451 78.583L53.6467 78.583C47.7561 78.583 42.9808 83.3583 42.9808 89.2489C42.9808 97.4596 34.0914 102.591 26.9808 98.4853C21.8788 95.5396 15.3543 97.2874 12.4087 102.389L1.50766 121.27C-1.43865 126.374 0.309822 132.899 5.41298 135.845C12.526 139.952 12.5224 150.221 5.40935 154.328C0.304371 157.275 -1.44682 163.804 1.50054 168.909L12.3977 187.783ZM64.5483 168.576C77.5111 168.576 88.0195 158.068 88.0195 145.105C88.0195 132.142 77.5111 121.634 64.5483 121.634C51.5856 121.634 41.0772 132.142 41.0772 145.105C41.0772 158.068 51.5856 168.576 64.5483 168.576Z" fill="#7592FF"/>
<path fill-rule="evenodd" clip-rule="evenodd" d="M87.9495 54.4633C87.7791 57.7001 90.266 60.4623 93.5029 60.6326C98.0135 60.8699 100.577 65.9012 98.1164 69.6888C96.351 72.4061 97.1226 76.0402 99.8399 77.8057L109.894 84.338C112.612 86.1039 116.247 85.3317 118.013 82.6138C120.474 78.8257 126.114 79.1219 128.164 83.1473C129.634 86.0353 133.168 87.1842 136.056 85.7134L146.741 80.2718C149.628 78.8014 150.776 75.2676 149.306 72.3803C147.257 68.3572 150.331 63.6229 154.839 63.8601C158.074 64.0303 160.834 61.5462 161.004 58.3117L161.634 46.3329C161.805 43.0976 159.32 40.3368 156.085 40.1666C151.575 39.9293 149.015 34.8979 151.475 31.1112C153.24 28.3938 152.469 24.7589 149.752 22.9933L139.696 16.4597C136.979 14.6946 133.345 15.4661 131.58 18.1828C129.12 21.9696 123.483 21.6724 121.433 17.6483C119.963 14.761 116.43 13.612 113.543 15.0824L102.857 20.5239C99.9694 21.9947 98.8205 25.5282 100.291 28.4162C102.341 32.4416 99.2625 37.1766 94.7514 36.9392C91.5138 36.7688 88.7497 39.2553 88.5794 42.4929L87.9495 54.4633ZM117.757 61.2316C123.736 65.1159 131.731 63.4182 135.615 57.4397C139.499 51.4612 137.802 43.4658 131.823 39.5816C125.845 35.6973 117.849 37.395 113.965 43.3735C110.081 49.352 111.779 57.3473 117.757 61.2316Z" fill="#7592FF"/>
<path fill-rule="evenodd" clip-rule="evenodd" d="M157.997 100.165C158.662 102.06 160.738 103.056 162.633 102.39C165.273 101.463 167.929 103.741 167.412 106.492C167.041 108.465 168.34 110.365 170.313 110.736L177.614 112.108C179.587 112.479 181.488 111.18 181.859 109.206C182.376 106.455 185.677 105.296 187.801 107.119C189.324 108.427 191.62 108.252 192.928 106.728L197.767 101.091C199.075 99.568 198.899 97.2725 197.376 95.9649C195.254 94.1428 195.899 90.7056 198.538 89.7786C200.431 89.1135 201.427 87.0394 200.762 85.146L198.299 78.1339C197.634 76.2401 195.559 75.2441 193.665 75.9093C191.025 76.8366 188.372 74.5575 188.889 71.8078C189.26 69.8346 187.961 67.9337 185.988 67.5628L178.685 66.1902C176.713 65.8193 174.813 67.118 174.442 69.0908C173.925 71.8405 170.625 72.9993 168.502 71.1768C166.979 69.8691 164.684 70.0437 163.376 71.567L158.537 77.2041C157.229 78.7276 157.403 81.0231 158.927 82.3311C161.051 84.1542 160.403 87.593 157.762 88.5206C155.867 89.1863 154.87 91.2626 155.535 93.1578L157.997 100.165ZM176.671 97.0153C181.012 97.8313 185.193 94.9735 186.009 90.6323C186.825 86.291 183.968 82.1102 179.626 81.2942C175.285 80.4782 171.104 83.3359 170.288 87.6772C169.472 92.0185 172.33 96.1993 176.671 97.0153Z" fill="#7592FF"/>
</svg>

<svg xmlns="http://www.w3.org/2000/svg" width="204" height="212" fill="none" viewBox="0 0 204 212"><path fill="#7592ff" fill-rule="evenodd" d="M12.398 187.783c2.946 5.104 9.474 6.852 14.578 3.905 7.112-4.106 16.005 1.025 16.005 9.238 0 5.892 4.776 10.668 10.668 10.668h21.8c5.893 0 10.67-4.778 10.67-10.672 0-8.213 8.892-13.347 16.005-9.241 5.103 2.946 11.628 1.198 14.574-3.905l10.901-18.881c2.946-5.102 1.196-11.627-3.906-14.573-7.109-4.104-7.112-14.367-.004-18.471 5.1-2.945 6.848-9.466 3.903-14.566l-10.905-18.888c-2.945-5.102-9.468-6.85-14.569-3.904-7.11 4.105-15.999-1.03-15.999-9.24 0-5.892-4.776-10.67-10.668-10.67H53.647c-5.89 0-10.666 4.775-10.666 10.666 0 8.21-8.89 13.342-16 9.236-5.102-2.945-11.627-1.198-14.572 3.904L1.508 121.27c-2.947 5.104-1.198 11.629 3.905 14.575 7.113 4.107 7.11 14.376-.004 18.483-5.105 2.947-6.856 9.476-3.908 14.581zm52.15-19.207c12.963 0 23.471-10.508 23.471-23.471s-10.508-23.471-23.47-23.471-23.472 10.508-23.472 23.471 10.509 23.471 23.471 23.471M87.95 54.463a5.87 5.87 0 0 0 5.553 6.17c4.51.237 7.074 5.268 4.613 9.056a5.87 5.87 0 0 0 1.724 8.117l10.054 6.532a5.87 5.87 0 0 0 8.119-1.724c2.461-3.788 8.101-3.492 10.151.533a5.87 5.87 0 0 0 7.892 2.566l10.685-5.441a5.87 5.87 0 0 0 2.565-7.892c-2.049-4.023 1.025-8.757 5.533-8.52a5.864 5.864 0 0 0 6.165-5.548l.63-11.98a5.865 5.865 0 0 0-5.549-6.165c-4.51-.238-7.07-5.27-4.61-9.056a5.87 5.87 0 0 0-1.723-8.118l-10.056-6.533a5.867 5.867 0 0 0-8.116 1.723c-2.46 3.787-8.097 3.49-10.147-.535a5.867 5.867 0 0 0-7.89-2.566l-10.686 5.442a5.87 5.87 0 0 0-2.566 7.892c2.05 4.026-1.028 8.76-5.54 8.523a5.87 5.87 0 0 0-6.172 5.554zm29.807 6.769c5.979 3.884 13.974 2.186 17.858-3.792 3.884-5.979 2.187-13.974-3.792-17.858s-13.974-2.187-17.858 3.791c-3.884 5.979-2.186 13.974 3.792 17.859M157.997 100.165a3.635 3.635 0 0 0 4.636 2.225c2.64-.927 5.296 1.351 4.779 4.102a3.635 3.635 0 0 0 2.901 4.244l7.301 1.372a3.636 3.636 0 0 0 4.245-2.902c.517-2.751 3.818-3.91 5.942-2.087a3.636 3.636 0 0 0 5.127-.391l4.839-5.637a3.635 3.635 0 0 0-.391-5.126c-2.122-1.822-1.477-5.26 1.162-6.186a3.634 3.634 0 0 0 2.224-4.633l-2.463-7.012a3.635 3.635 0 0 0-4.634-2.225c-2.64.928-5.293-1.352-4.776-4.101a3.636 3.636 0 0 0-2.901-4.245l-7.303-1.373a3.635 3.635 0 0 0-4.243 2.9c-.517 2.75-3.817 3.91-5.94 2.087a3.635 3.635 0 0 0-5.126.39l-4.839 5.637a3.635 3.635 0 0 0 .39 5.127c2.124 1.823 1.476 5.262-1.165 6.19a3.64 3.64 0 0 0-2.227 4.637zm18.674-3.15a7.998 7.998 0 1 0 2.955-15.721 7.998 7.998 0 0 0-2.955 15.721" clip-rule="evenodd"/></svg>
